world_stage/static/flags/rect/sjm.svg

<svg height="977.77734" viewBox="0 0 1466.6667 977.77734" width="1466.6667" xmlns="http://www.w3.org/2000/svg"><g transform="matrix(1.3333333 0 0 -1.3333333 0 977.77733)"><path d="m0 0h1100v733.333h-1100z" fill="#ef2b2d"/><path d="m300 0h200.001v733.333h-200.001z" fill="#fff"/><path d="m0 266.666h1100v200h-1100z" fill="#fff"/><g fill="#002868"><path d="m350 0h100v733.333h-100z"/><path d="m0 316.667h1100v100h-1100z"/></g></g></svg>

<?xml version="1.0" encoding="UTF-8" standalone="no"?>
<!-- Created with Inkscape (http://www.inkscape.org/) -->

<svg
   version="1.1"
   id="svg1"
   width="1466.6667"
   height="977.77734"
   viewBox="0 0 1466.6667 977.77734"
   sodipodi:docname="sj.ai"
   xmlns:inkscape="http://www.inkscape.org/namespaces/inkscape"
   xmlns:sodipodi="http://sodipodi.sourceforge.net/DTD/sodipodi-0.dtd"
   xmlns="http://www.w3.org/2000/svg"
   xmlns:svg="http://www.w3.org/2000/svg">
  <defs
     id="defs1" />
  <sodipodi:namedview
     id="namedview1"
     pagecolor="#ffffff"
     bordercolor="#000000"
     borderopacity="0.25"
     inkscape:showpageshadow="2"
     inkscape:pageopacity="0.0"
     inkscape:pagecheckerboard="0"
     inkscape:deskcolor="#d1d1d1">
    <inkscape:page
       x="0"
       y="0"
       inkscape:label="1"
       id="page1"
       width="1466.6667"
       height="977.77734"
       margin="0"
       bleed="0" />
  </sodipodi:namedview>
  <g
     id="layer-MC0"
     inkscape:groupmode="layer"
     inkscape:label="Layer 1">
    <path
       id="path1"
       d="M 0,0 H 1100 V 733.333 H 0 Z"
       style="fill:#ef2b2d;fill-opacity:1;fill-rule:nonzero;stroke:none"
       transform="matrix(1.3333333,0,0,-1.3333333,0,977.77733)" />
    <path
       id="path2"
       d="M 300,0 H 500.001 V 733.333 H 300 Z"
       style="fill:#ffffff;fill-opacity:1;fill-rule:nonzero;stroke:none"
       transform="matrix(1.3333333,0,0,-1.3333333,0,977.77733)" />
    <path
       id="path3"
       d="m 0,266.666 h 1100 v 200 H 0 Z"
       style="fill:#ffffff;fill-opacity:1;fill-rule:nonzero;stroke:none"
       transform="matrix(1.3333333,0,0,-1.3333333,0,977.77733)" />
    <path
       id="path4"
       d="M 350,0 H 450 V 733.333 H 350 Z"
       style="fill:#002868;fill-opacity:1;fill-rule:nonzero;stroke:none"
       transform="matrix(1.3333333,0,0,-1.3333333,0,977.77733)" />
    <path
       id="path5"
       d="m 0,316.667 h 1100 v 100 H 0 Z"
       style="fill:#002868;fill-opacity:1;fill-rule:nonzero;stroke:none"
       transform="matrix(1.3333333,0,0,-1.3333333,0,977.77733)" />
  </g>
</svg>
